X:1
T:Send Out Your Light and Your Truth
T:Text: Psalm 43:3; 139:24: vers. Psalter, 1912 Tune: Charles F. Gounod, 1818-1893
T:11 10 11 10 LUX FIAT www.hymnary.org/text/send_out_thy_light_and_thy_truth_le
T:Send Out Your Light and Your Truth
T:This hymn is in the public domain. You may freely use this score for personal and congregational worship. If you reproduce the score, please credit Hymnary.org as the source. 
T:This hymn is in the public domain. You may freely use this score for personal and congregational worship. If you reproduce the score, please credit Hymnary.org as the source. 
Z:This hymn is in the public domain. You may freely use this score for personal and congregational worship. If you reproduce the score, please credit Hymnary.org as the source.
%%score ( 1 2 ) ( 3 4 )
L:1/8
M:4/4
K:C
V:1 treble nm="SOPRANO ALTO" snm="S. A."
V:2 treble 
V:3 bass nm="TENOR BASS" snm="T. B."
V:4 bass 
V:1
"^1""^2" E4 E2 E2 | G4 E2 F2 | E4 C2 D2 | D4 C4 | G4 ^F2 G2 | E2 ^F2 G2 A2 | (B2 D2) A4 | G8 | %8
w: Send out your|light and your|truth, let them|lead me;|O let them|bring me to your|ho- * ly|hill.|
w: Lead me, O|LORD, in the|way ev- er-|last- ing;|O lead and|guide me to your|ho- * ly|hill.|
 G4 A2 B2 | c4 B2 A2 | G4 A2 B2 | d4 c4 |1 c4 B2 A2 | G2 E2 F2 E2 | C4 D4 | C8 |] %16
w: Send out your|light and your|truth, let them|lead me;|O let them|bring me to your|ho- ly|hill.|
w: Lead me, O|LORD, in the|way ev- er-|last- ing;|O lead and|guide me to your|ho- ly|hill.|
V:2
 C4 C2 C2 | D4 C2 C2 | C4 C2 B,2 | B,4 C4 | D4 C2 D2 | C2 C2 D2 E2 | (D2 B,2) C4 | B,8 | D4 D2 D2 | %9
 G4 F2 E2 | D4 D2 D2 | G4 G4 |1 C4 C2 C2 | C2 C2 C2 C2 | A,4 B,4 | C8 |] %16
V:3
 G,4 G,2 G,2 | G,4 G,2 A,2 | G,4 E,2 F,2 | F,4 E,4 | G,4 A,2 B,2 | G,2 A,2 G,2 G,2 | %6
 (G,2 ^F,E,) F,4 | G,8 | B,4 A,2 G,2 | G,4 G,2 A,2 | B,4 A,2 G,2 | B,4 C4 |1 A,4 G,2 F,2 | %13
 E,2 G,2 A,2 G,2 | E,4 F,4 | E,8 |] %16
V:4
 C,4 C,2 C,2 | B,,4 C,2 F,,2 | G,,4 G,,2 G,,2 | G,,4 C,4 | B,,4 A,,2 G,,2 | C,2 A,,2 B,,2 C,2 | %6
 D,4 D,4 | G,,8 | =F,4 F,2 F,2 | E,4 D,2 C,2 | F,4 F,2 F,2 | F,4 E,4 |1 F,4 F,,2 F,,2 | %13
 G,,2 G,,2 G,,2 G,,2 | A,,4 G,,4 | C,8 |] %16

